X: 1593
T: Ann From Monaghan
R: reel
M: 4/4
K: Dmajor
(3ABc|:defa gece|dfed cAAc|BAGB AGFA|GFED CDEC|
DEFD EFGE|ABBA defg|(3aaa ge fded|cAGE EDDc:|
|:dfab afdc|dfag fdAB|=cega ge=cB|=ceg_f ed(3ddd|
cdfg fdfa|gabg ecAg|(3aaa ge fded|cAGE EDDc:|

